X: 24356
T: Lounge Bar, The
R: jig
M: 6/8
K: Dmajor
A,|:B,DF E2D-|DFA d2c|BGB AFD|EGF E2A,|
B,DF E2D-|DFA d2c|BGB AFD|1 E>FE D2A,:|2 E>FE DFA||
|:d3 dcA|F3FEF|GBd- dcA|E3 EDE|
F3 FED|B,3 B,A,B,|D2E- EFE|1 D3 DFA:|2 D6||
|:dBd c2B-|Bdf e2c|dcB AFD|EGF E2D|
dBd c2B-|Bdf e2c|dcB AFD|E>FE D3:|

